src/view/frontend/web/svg/heroicons/outline/music-note.svg

<svg  viewBox="0 0 24 24" fill="none" stroke="currentColor" xmlns="http://www.w3.org/2000/svg">
<path d="M9 19V6L21 3V16M9 19C9 20.1046 7.65685 21 6 21C4.34315 21 3 20.1046 3 19C3 17.8954 4.34315 17 6 17C7.65685 17 9 17.8954 9 19ZM21 16C21 17.1046 19.6569 18 18 18C16.3431 18 15 17.1046 15 16C15 14.8954 16.3431 14 18 14C19.6569 14 21 14.8954 21 16ZM9 10L21 7"  stroke-width="2" stroke-linecap="round" stroke-linejoin="round"/>
</svg>

<svg xmlns="http://www.w3.org/2000/svg" fill="none" stroke="currentColor" viewBox="0 0 24 24"><path stroke-linecap="round" stroke-linejoin="round" stroke-width="2" d="M9 19V6l12-3v13M9 19c0 1.105-1.343 2-3 2s-3-.895-3-2 1.343-2 3-2 3 .895 3 2Zm12-3c0 1.105-1.343 2-3 2s-3-.895-3-2 1.343-2 3-2 3 .895 3 2ZM9 10l12-3"/></svg>
